X:378
T:Road to Spencer
C:Ricky Skaggs
N:From the CD "History of the Future" Transcribed by Mike Stangeland
R:bluegrass
L:1/8
Q:1/4=240
M:4/4
K:B
z8 |: "B"FB BF B2 Bc | de fd ed B=A | "A"=G=A A2 A^G AB | c/B/=A FE F2 CA | "B"FB BF B2 Bc | 
de fd ed Bc | "B"df ed "A"BG FG | "F#m"=AB cA "B"B2 B2 :|: {e}"B"f2 f2 f2 fg | 
=af eg fd B2 | "E"[e2e2] [e2e2] [ee]d ef | g/f/e fd ed Bc | "B"df fg f2 fg | =af eg fd Bc | 
"B"df ed "A"BG FG | "F#m"=AB cA "B"B2 FE :| "B"=D^D EF B2 Bc | de fd f/e/d BG | 
"A"=G=A A2 A2 AB | c/B/=A FE F2 CE | "B"FB FB B2 Bc | de fd Bc df | "B"=aB gB "A"fB e=d | 
"F#m"dB GF "B"B2 BB | {F}"B"GB BG BB FB | BG BB FB BG | "A"G=A EE EF zA | G=A FA GA FA | 
"B"E=A DE FA BF | Bc de fd fg | "B"=af ge "A"d/f/z b2 | "F#m"=af ed "B"B4 |: {e}"B"f2 f2 f2 fg | 
=af eg fd B2 | "E"[e2e2] [e2e2] [ee]d ef | {g}fe fd ed Bc | "B"df fg f2 fg | =af eg fd Bc | 
"B"df ed "A"BG FG | "F#m"=AB cA "B"B2 B2 :| 


